Origami/64x64/apps/kipi-dngconverter.svg

<svg width="64" height="64" version="1" xmlns="http://www.w3.org/2000/svg">
 <path d="m4.0004 52.000036v1.999994s0 3.01199 2.9999899 2.99999l50.199832-0.19922c1.549995-6e-3 2.79999-1.247995 2.79999-2.79999v-1.999994c0 1.551195-1.249575 2.794791-2.80079 2.800791l-50.199832 0.199999 50.187832-0.187999c0.775597-3e-3 1.493895-0.307159 1.999993-0.812497-0.547798 0.599558-1.307615 0.999996-2.187593 0.999996h-49.999832c-2.9999899 0.012-2.9999899-2.99999-2.9999899-2.99999zm2.9999899 4.999984h49.999832c0.879878 0 1.639695-0.400439 2.187593-0.999997-0.506098 0.505338-1.224396 0.809497-1.999993 0.812497l-50.187832 0.188z" style="opacity:.2"/>
 <path d="m7.0003899 8.0001862c-1.6619944 0-2.9999899 1.3379955-2.9999899 2.9999898v32.99989h55.999812v-32.99989c0-1.6619943-1.337995-2.9999898-2.99999-2.9999898h-49.999832zm52.749823 46.061846c-0.141399 0.334739-0.309439 0.684818-0.562498 0.937497 0.254119-0.278119 0.427239-0.577738 0.562498-0.937497zm-0.562498 0.937497c-0.506098 0.505338-1.224396 0.809497-1.999993 0.812497l-50.187832 0.187999h49.999832c0.879878 0 1.639695-0.400438 2.187593-0.999996z" style="fill:#ff766a"/>
 <path d="m7 8c-1.6619944 0-3 1.3380057-3 3v1c0-1.661994 1.3380056-3 3-3h50c1.661995 0 3 1.338006 3 3v-1c0-1.6619943-1.338005-3-3-3h-50z" style="fill:#ffffff;opacity:.2"/>
 <path d="m44.000066 19.000054c4.418185 0 7.999973 3.581788 7.999973 7.999973s-3.581788 7.999973-7.999973 7.999973-7.999973-3.581788-7.999973-7.999973 3.581788-7.999973 7.999973-7.999973z" style="fill-rule:evenodd;opacity:.2"/>
 <path d="m44.000066 18.000153c4.418185 0 7.999973 3.581788 7.999973 7.999973s-3.581788 7.999973-7.999973 7.999973-7.999973-3.581788-7.999973-7.999973 3.581788-7.999973 7.999973-7.999973z" style="fill-rule:evenodd;fill:#fffee4"/>
 <path d="m4.0004 44.000066v8.999969s0 3.01199 2.9999899 2.99999l50.199832-0.199999c1.551195-6e-3 2.79999-1.248796 2.79999-2.799991v-8.999969z" style="fill:#d22f7a"/>
 <path d="m4.0004 44.000066v-1.599995s4.0383865-2.666591 5.1735827-2.89919c1.1353563-0.23264 2.4761913-0.0434 3.8541873 0.216799 1.377975 0.259199 3.435188 0.609758 4.077186 0.631678 0.642078 0.0224 1.803954-0.056 3.15399-0.1376 1.349995-0.08 3.585188-0.153599 4.282385-0.145599 0.697218 0 2.437792 0.096 4.292986 0.209259 1.855334 0.1136 4.403585 0.303379 4.981783 0.356479 0.578198 0.0528 1.257816 0.150399 2.029193 0.256819 0.771258 0.1056 2.106593 0.265099 2.578792 0.308959 0.472338 0.043 1.567434 0.193799 2.83799 0.310719 1.270596 0.1168 3.303989 0.156799 3.891187 0.1136 0.587218-0.0434 1.818054-0.478079 3.189789-0.878877 1.371636-0.400639 2.884191-0.767518 4.034587-0.676798 1.150456 0.091 7.622174 2.333592 7.622174 2.333592v1.599995h-49.199835z"/>
 <path d="M 63.957999,45.848057 A 15.999946,15.999946 0 0 1 48.000053,61.000006 15.999946,15.999946 0 0 1 32.042106,46.152056 15.999946,15.999946 0 0 0 32.000106,47.000053 15.999946,15.999946 0 0 0 48.000053,63 15.999946,15.999946 0 0 0 63.999999,47.000053 15.999946,15.999946 0 0 0 63.957039,45.847717 Z" style="fill-rule:evenodd;opacity:.2"/>
 <circle cx="48" cy="46" r="16" style="fill-rule:evenodd;fill:#42cd4f"/>
 <path d="m48 37a9 9 0 0 0 -9 9 9 9 0 0 0 9 9 9 9 0 0 0 8.474609 -6h-3.285156a6 6 0 0 1 -5.189453 3 6 6 0 0 1 -6 -6 6 6 0 0 1 6 -6 6 6 0 0 1 4.710938 2.289062l-2.710938 2.710938h3.5 0.414062 3.025391 0.060547v-3.5-3.5l-2.160156 2.160156a9 9 0 0 0 -6.839844 -3.160156z" style="fill:#ffffff"/>
</svg>

<svg xmlns="http://www.w3.org/2000/svg" width="64" height="64" version="1">
 <path style="opacity:0.2" d="m 4.0004,52.000036 0,1.999994 c 0,0 0,3.01199 2.9999899,2.99999 L 57.200222,56.8008 c 1.549995,-0.006 2.79999,-1.247995 2.79999,-2.79999 l 0,-1.999994 c 0,1.551195 -1.249575,2.794791 -2.80079,2.800791 L 6.99959,55.001606 57.187422,54.813607 c 0.775597,-0.003 1.493895,-0.307159 1.999993,-0.812497 -0.547798,0.599558 -1.307615,0.999996 -2.187593,0.999996 l -49.9998321,0 C 4,55.013106 4,52.001116 4,52.001116 Z m 2.9999899,4.999984 49.9998321,0 c 0.879878,0 1.639695,-0.400439 2.187593,-0.999997 -0.506098,0.505338 -1.224396,0.809497 -1.999993,0.812497 l -50.187832,0.188 z"/>
 <path style="fill:#ff766a" d="M 7.0003899,8.0001862 C 5.3383955,8.0001862 4.0004,9.3381817 4.0004,11.000176 l 0,32.99989 55.999812,0 0,-32.99989 c 0,-1.6619943 -1.337995,-2.9999898 -2.99999,-2.9999898 l -49.9998321,0 z M 59.750213,54.062032 c -0.141399,0.334739 -0.309439,0.684818 -0.562498,0.937497 0.254119,-0.278119 0.427239,-0.577738 0.562498,-0.937497 z m -0.562498,0.937497 c -0.506098,0.505338 -1.224396,0.809497 -1.999993,0.812497 l -50.187832,0.187999 49.999832,0 c 0.879878,0 1.639695,-0.400438 2.187593,-0.999996 z"/>
 <path style="opacity:0.2;fill:#ffffff" d="M 7 8 C 5.3380056 8 4 9.3380057 4 11 L 4 12 C 4 10.338006 5.3380056 9 7 9 L 57 9 C 58.661995 9 60 10.338006 60 12 L 60 11 C 60 9.3380057 58.661995 8 57 8 L 7 8 z"/>
 <path style="opacity:0.2;fill-rule:evenodd" d="m 44.000066,19.000054 c 4.418185,0 7.999973,3.581788 7.999973,7.999973 0,4.418185 -3.581788,7.999973 -7.999973,7.999973 -4.418185,0 -7.999973,-3.581788 -7.999973,-7.999973 0,-4.418185 3.581788,-7.999973 7.999973,-7.999973 z"/>
 <path style="fill:#fffee4;fill-rule:evenodd" d="m 44.000066,18.000153 c 4.418185,0 7.999973,3.581788 7.999973,7.999973 0,4.418185 -3.581788,7.999973 -7.999973,7.999973 -4.418185,0 -7.999973,-3.581788 -7.999973,-7.999973 0,-4.418185 3.581788,-7.999973 7.999973,-7.999973 z"/>
 <path style="fill:#d22f7a" d="m 4.0004,44.000066 0,8.999969 c 0,0 0,3.01199 2.9999899,2.99999 L 57.200222,55.800026 c 1.551195,-0.006 2.79999,-1.248796 2.79999,-2.799991 l 0,-8.999969 z"/>
 <path d="m 4.0004,44.000066 0,-1.599995 c 0,0 4.0383865,-2.666591 5.1735827,-2.89919 1.1353563,-0.23264 2.4761913,-0.0434 3.8541873,0.216799 1.377975,0.259199 3.435188,0.609758 4.077186,0.631678 0.642078,0.0224 1.803954,-0.056 3.15399,-0.1376 1.349995,-0.08 3.585188,-0.153599 4.282385,-0.145599 0.697218,0 2.437792,0.096 4.292986,0.209259 1.855334,0.1136 4.403585,0.303379 4.981783,0.356479 0.578198,0.0528 1.257816,0.150399 2.029193,0.256819 0.771258,0.1056 2.106593,0.265099 2.578792,0.308959 0.472338,0.043 1.567434,0.193799 2.83799,0.310719 1.270596,0.1168 3.303989,0.156799 3.891187,0.1136 0.587218,-0.0434 1.818054,-0.478079 3.189789,-0.878877 1.371636,-0.400639 2.884191,-0.767518 4.034587,-0.676798 1.150456,0.091 7.622174,2.333592 7.622174,2.333592 l 0,1.599995 -49.199835,0 z"/>
 <path style="opacity:0.2;fill-rule:evenodd" d="M 63.957999,45.848057 A 15.999946,15.999946 0 0 1 48.000053,61.000006 15.999946,15.999946 0 0 1 32.042106,46.152056 15.999946,15.999946 0 0 0 32.000106,47.000053 15.999946,15.999946 0 0 0 48.000053,63 15.999946,15.999946 0 0 0 63.999999,47.000053 15.999946,15.999946 0 0 0 63.957039,45.847717 Z"/>
 <circle style="fill:#42cd4f;fill-rule:evenodd" cx="48" cy="46" r="16"/>
 <path style="fill:#ffffff" d="M 48 37 A 9 9 0 0 0 39 46 A 9 9 0 0 0 48 55 A 9 9 0 0 0 56.474609 49 L 53.189453 49 A 6 6 0 0 1 48 52 A 6 6 0 0 1 42 46 A 6 6 0 0 1 48 40 A 6 6 0 0 1 52.710938 42.289062 L 50 45 L 53.5 45 L 53.914062 45 L 56.939453 45 L 57 45 L 57 41.5 L 57 38 L 54.839844 40.160156 A 9 9 0 0 0 48 37 z"/>
</svg>
